X:1
T: Mrs. Mosman's Strathspey
C:
R:Strathspey
Q: 128
K:G
M:4/4
L:1/16
|:D2|G4 Bd3 c3e dg3|G3d BG3 F3G AD3|G4 B3D c3e df3|g3d g3a bg3 g2D2|
G4 Bd3 c3e dg3|G3d BG3 F3G AD3|G4 B3D c3e df3|g3d g3a bg3 g2d2|
g3d g3b a3d fa3|g3d b3g fa3 a3f|g3d bg3 a3d fa3|g3e d3c BG3 G3d|
f3d bg3 a3d fa3|g3d bg3 f3a a2ga|b3g af3 g3e d3c|Bd3 A3c BG3 G2:|
